svg/dice_2_outline.svg

<svg xmlns="http://www.w3.org/2000/svg" viewBox="0 0 24 24"><path d="M19 5v14H5V5zm0-2H5c-1.1 0-2 .9-2 2v14a2 2 0 0 0 2 2h14c1.11 0 2-.89 2-2V5a2 2 0 0 0-2-2M7.5 6C6.67 6 6 6.67 6 7.5S6.67 9 7.5 9 9 8.33 9 7.5 8.33 6 7.5 6m9 9c-.83 0-1.5.67-1.5 1.5s.67 1.5 1.5 1.5 1.5-.67 1.5-1.5-.67-1.5-1.5-1.5"/></svg>

<?xml version="1.0" encoding="UTF-8"?><!DOCTYPE svg PUBLIC "-//W3C//DTD SVG 1.1//EN" "http://www.w3.org/Graphics/SVG/1.1/DTD/svg11.dtd"><svg xmlns="http://www.w3.org/2000/svg" xmlns:xlink="http://www.w3.org/1999/xlink" version="1.1" id="mdi-dice-2-outline" width="24" height="24" viewBox="0 0 24 24"><path d="M19 5V19H5V5H19M19 3H5C3.9 3 3 3.9 3 5V19C3 20.11 3.9 21 5 21H19C20.11 21 21 20.11 21 19V5C21 3.9 20.11 3 19 3M7.5 6C6.67 6 6 6.67 6 7.5S6.67 9 7.5 9 9 8.33 9 7.5 8.33 6 7.5 6M16.5 15C15.67 15 15 15.67 15 16.5C15 17.33 15.67 18 16.5 18C17.33 18 18 17.33 18 16.5C18 15.67 17.33 15 16.5 15Z" /></svg>
